assets/svg/video-o.svg

<?xml version="1.0" encoding="UTF-8"?>
<svg width="1000px" height="1000px" viewBox="0 0 1000 1000" version="1.1" xmlns="http://www.w3.org/2000/svg" xmlns:xlink="http://www.w3.org/1999/xlink">
    <!-- Generator: sketchtool 52.4 (67378) - http://www.bohemiancoding.com/sketch -->
    <title>video-o</title>
    <desc>Created with sketchtool.</desc>
    <g id="新版图标" stroke="none" stroke-width="1" fill="none" fill-rule="evenodd">
        <g id="video-o" fill="#323233">
            <g id="直角-视频教程-线">
                <path d="M166.666667,166.666667 L166.666667,833.333333 L833.333333,833.333333 L833.333333,166.666667 L166.666667,166.666667 Z M166.666667,111.111111 L833.333333,111.111111 C864.015819,111.111111 888.888889,135.984181 888.888889,166.666667 L888.888889,833.333333 C888.888889,864.015819 864.015819,888.888889 833.333333,888.888889 L166.666667,888.888889 C135.984181,888.888889 111.111111,864.015819 111.111111,833.333333 L111.111111,166.666667 C111.111111,135.984181 135.984181,111.111111 166.666667,111.111111 Z" id="Rectangle-17-Copy" fill-rule="nonzero"></path>
                <rect id="Rectangle-17" x="166.666667" y="277.777778" width="666.666667" height="55.5555556"></rect>
                <path d="M666.666667,583.333333 L388.888889,722.222222 L388.888889,444.444444 L666.666667,583.333333 Z M555.555556,583.333333 L444.444444,527.777778 L444.444444,638.888889 L555.555556,583.333333 Z" id="Combined-Shape"></path>
                <polygon id="Rectangle-23" points="277.777778 166.666667 333.333333 166.666667 389.232854 277.777778 333.677299 277.777778"></polygon>
                <polygon id="Rectangle-23" points="444.444444 166.666667 500 166.666667 555.899521 277.777778 500.343965 277.777778"></polygon>
                <polygon id="Rectangle-23" points="611.111111 166.666667 666.666667 166.666667 722.566188 277.777778 667.010632 277.777778"></polygon>
            </g>
        </g>
    </g>
</svg>

<svg width="1000" height="1000" xmlns="http://www.w3.org/2000/svg"><g fill="#323233" fill-rule="evenodd"><path d="M166.667 166.667v666.666h666.666V166.667H166.667zm0-55.556h666.666c30.683 0 55.556 24.873 55.556 55.556v666.666c0 30.683-24.873 55.556-55.556 55.556H166.667c-30.683 0-55.556-24.873-55.556-55.556V166.667c0-30.683 24.873-55.556 55.556-55.556z" fill-rule="nonzero"/><path d="M166.667 277.778h666.667v55.556H166.667zM666.667 583.333l-277.778 138.89V444.443l277.778 138.89zm-111.111 0l-111.112-55.555v111.11l111.112-55.555zM277.778 166.667h55.555l55.9 111.11h-55.556zM444.444 166.667H500l55.9 111.11h-55.556zM611.111 166.667h55.556l55.9 111.11H667.01z"/></g></svg>
